canopeum_frontend/src/assets/icons/site-planted.svg

<svg width="24" height="24" viewBox="0 0 24 24" fill="none" xmlns="http://www.w3.org/2000/svg">
<path fill-rule="evenodd" clip-rule="evenodd" d="M3.51757 4.00225C3.78325 4.02765 4.13106 4.06544 4.53184 4.11978C6.36365 4.36815 9.30189 4.96228 10.5608 6.29839C10.5908 6.33018 10.6201 6.36237 10.6488 6.39494C10.6709 6.41727 10.6928 6.43993 10.7144 6.46293C11.2588 7.04073 11.6725 7.95183 11.9856 8.95713C12.2988 7.95183 12.7124 7.04073 13.2568 6.46293C13.2785 6.43993 13.3004 6.41727 13.3224 6.39494C13.3512 6.36237 13.3805 6.33018 13.4105 6.29839C14.6694 4.96228 17.6076 4.36815 19.4394 4.11978C19.8402 4.06544 20.188 4.02765 20.4537 4.00225C20.75 3.97394 20.9943 4.21625 20.9695 4.51289C20.9456 4.79887 20.9092 5.18059 20.856 5.62316C20.6219 7.5673 20.0621 10.6857 18.8032 12.0219C18.7815 12.0449 18.7597 12.0675 18.7376 12.0898C18.7089 12.1224 18.6795 12.1546 18.6496 12.1864C17.4866 13.4207 14.8907 14.0217 13.0576 14.302V18.5464H15.9569V20.3802H8.41912V18.5464H11.3181V14.3606C9.48424 14.1096 6.57317 13.5146 5.32168 12.1864C5.29173 12.1546 5.26239 12.1224 5.23364 12.0898C5.21159 12.0675 5.18973 12.0449 5.16805 12.0219C3.90914 10.6857 3.34934 7.5673 3.11532 5.62316C3.06204 5.18059 3.02565 4.79887 3.00174 4.51289C2.97693 4.21625 3.22126 3.97394 3.51757 4.00225ZM7.32603 6.38628C6.45353 6.1165 5.51274 5.93273 4.70895 5.81113C4.82353 6.66421 4.99667 7.6627 5.25087 8.58871C5.56207 9.7224 5.92893 10.4945 6.26803 10.8544C6.28109 10.8683 6.29423 10.8819 6.30744 10.8953C6.32856 10.9166 6.3491 10.9387 6.36905 10.9613C6.38619 10.9807 6.40373 10.9999 6.42167 11.019C6.76077 11.3789 7.48828 11.7682 8.55646 12.0985C9.42896 12.3683 10.3698 12.5521 11.1735 12.6737C11.059 11.8206 10.8858 10.8221 10.6316 9.89608C10.3204 8.76239 9.95356 7.99027 9.61445 7.63036C9.6014 7.61651 9.58827 7.6029 9.57505 7.58952C9.55394 7.56814 9.53339 7.54613 9.51344 7.52352C9.4963 7.5041 9.47877 7.48487 9.46082 7.46582C9.12172 7.10592 8.39421 6.71657 7.32603 6.38628ZM16.6452 6.38628C17.5177 6.1165 18.4585 5.93273 19.2623 5.81113C19.1477 6.66421 18.9746 7.6627 18.7204 8.58871C18.4092 9.7224 18.0423 10.4945 17.7032 10.8544C17.6902 10.8683 17.677 10.8819 17.6638 10.8953C17.6427 10.9166 17.6222 10.9387 17.6022 10.9613C17.5851 10.9807 17.5675 10.9999 17.5496 11.019C17.2105 11.3789 16.483 11.7682 15.4148 12.0985C14.5423 12.3683 13.6015 12.5521 12.7977 12.6737C12.9123 11.8206 13.0855 10.8221 13.3396 9.89608C13.6509 8.76239 14.0177 7.99027 14.3568 7.63036C14.3699 7.61651 14.383 7.6029 14.3962 7.58952C14.4173 7.56814 14.4379 7.54613 14.4578 7.52352C14.475 7.5041 14.4925 7.48487 14.5104 7.46582C14.8496 7.10592 15.5771 6.71657 16.6452 6.38628Z" fill="#007E51"/>
</svg>

<svg width="24" height="24" fill="none" xmlns="http://www.w3.org/2000/svg">
  <path fill-rule="evenodd" clip-rule="evenodd"
    d="M3.518 4.002c.265.026.613.063 1.014.118 1.832.248 4.77.842 6.029 2.178.03.032.06.064.088.097l.065.068c.545.578.958 1.489 1.272 2.494.313-1.005.726-1.916 1.27-2.494l.066-.068.089-.097c1.258-1.336 4.197-1.93 6.028-2.178.401-.055.749-.092 1.015-.118a.47.47 0 01.515.51c-.023.287-.06.669-.113 1.111-.234 1.944-.794 5.063-2.053 6.399a3.839 3.839 0 01-.065.068 3.992 3.992 0 01-.088.096c-1.163 1.235-3.76 1.836-5.592 2.116v4.244h2.899v1.834H8.419v-1.834h2.9v-4.185c-1.835-.251-4.746-.846-5.997-2.175a3.994 3.994 0 01-.088-.096 3.948 3.948 0 01-.066-.068c-1.259-1.336-1.819-4.455-2.053-6.399-.053-.442-.09-.824-.113-1.11a.47.47 0 01.516-.51zm3.808 2.384a18.423 18.423 0 00-2.617-.575A21.7 21.7 0 005.25 8.59c.311 1.133.678 1.905 1.017 2.265l.04.041.061.066.053.058c.339.36 1.066.75 2.134 1.08.873.27 1.814.453 2.618.575a21.686 21.686 0 00-.542-2.778C10.32 8.762 9.954 7.99 9.614 7.63a1.61 1.61 0 01-.101-.107 2.398 2.398 0 00-.052-.057c-.34-.36-1.067-.75-2.135-1.08zm9.32 0c.872-.27 1.813-.453 2.616-.575a21.703 21.703 0 01-.542 2.778c-.31 1.133-.678 1.905-1.017 2.265a1.607 1.607 0 00-.101.107l-.052.058c-.34.36-1.067.75-2.135 1.08-.873.27-1.813.453-2.617.575a21.72 21.72 0 01.542-2.778c.31-1.134.678-1.906 1.017-2.266l.04-.04.06-.066a2.65 2.65 0 01.053-.058c.34-.36 1.067-.75 2.135-1.08z"
    fill="#007E51" />
</svg>
